!!!!SEGMENT: pl-kk--kk-i-130--003_gorczycki-grzegorz-gerwazy--benedicta-et-venerabilis.krn
!!!cenid: 16xx:735
!!!COM: Gorczycki, Grzegorz Gerwazy
!!!COM-rismID: pe30009207
!!!CDT: ~1666-1734/04/30
!!!CNT: Polish
!!!OTL: Benedicta et venerabilis
!!!PDT:
!!!AGN: Sacred
!!!SMS-siglum: PL-Kk
!!!SMS-shelfmark: Kk.I.130
!!!SMS-variant:
!!!SMS-altvar:
!!!SMS-shelfwork: 003 W
!!!NIFC-rismSourceId: 1001145218
!!!NIFC-islandoraID: pl-kk:3524
!!!URL-pdf-islandora: https://repozytorium.nifc.pl/islandora/object/pl-kk%3A3524/datastream/PDF/view
!!!URL-scan: https://polish.musicsources.pl/pl/lokalizacje/galeria/rekopisy/5760 @EN{Scan on Polish Music Sources Website} @PL{Skany w portalu Dziedzictwo Muzyki Polskiej w otwartym dostępie}
!!!ONB-nifc: UWAGA: utwory w zbiorze: 1. Beata es virgo Maria, 2. Felix es sacra virgo Maria, 3. Benedicta et venerabilis
!!!AIN: 1 alto 1 bass 1 soprn 1 tenor
!!!key: C:mix
**kern	**text	**mod-text	**kern	**text	**mod-text	**kern	**text	**mod-text	**kern	**text	**mod-text
*part4	*part4	*part4	*part3	*part3	*part3	*part2	*part2	*part2	*part1	*part1	*part1
*group1	*group1	*group1	*group1	*group1	*group1	*group1	*group1	*group1	*group1	*group1	*group1
*staff4	*staff4	*staff4	*staff3	*staff3	*staff3	*staff2	*staff2	*staff2	*staff1	*staff1	*staff1
*I"Baſso.	*	*	*I"Tenore.	*	*	*I"Alto.	*	*	*I"Canto.	*	*
*mI"Basso	*	*	*mI"Tenore	*	*	*mI"Alto	*	*	*mI"Soprano	*	*
*I'B	*	*	*I'T	*	*	*I'A	*	*	*I'S	*	*
*Ibass	*	*	*Itenor	*	*	*Ialto	*	*	*Isoprn	*	*
*ICvox	*	*	*ICvox	*	*	*ICvox	*	*	*ICvox	*	*
*clefF4	*	*	*clefC4	*	*	*clefC3	*	*	*clefC1	*	*
*mclefF4	*	*	*mclefGv2	*	*	*mclefG2	*	*	*mclefG2	*	*
*k[b-]	*	*	*k[b-]	*	*	*k[b-]	*	*	*k[b-]	*	*
*C:mix	*	*	*C:mix	*	*	*C:mix	*	*	*C:mix	*	*
*M2/1	*	*	*M2/1	*	*	*M2/1	*	*	*M2/1	*	*
*met(C|)	*	*	*met(C|)	*	*	*met(C|)	*	*	*met(C|)	*	*
*mmet(c|)	*	*	*mmet(c|)	*	*	*mmet(c|)	*	*	*mmet(c|)	*	*
=1-	=1-	=1-	=1-	=1-	=1-	=1-	=1-	=1-	=1-	=1-	=1-
!!LO:TX:t=P:problem=oddech\cezura na różnej wysokości
!LO:TX:t=P:problem=znaki: w źródle B- nad BB-	!	!	!LO:TX:a:t=à Capella:mod=	!	!	!LO:TX:a:t=à Capella:mod=	!	!	!LO:TX:a:t=à Capella:mod=	!	!
!LO:TX:a:t=à Capella:mod=	!	!	!	!	!	!LO:TX:t=P:problem=kreska pseudotaktowa	!	!	!LO:TX:t=P:problem=kreska pseudotaktowa	!	!
2r	.	.	1G/	Be-	Be-	0r	.	.	0r	.	.
1G\	Be-	Be-	.	.	.	.	.	.	.	.	.
.	.	.	1A\	-ne-	-ne-	.	.	.	.	.	.
*2\right	*	*	*	*	*	*	*	*	*	*	*
!LO:TX:t=P:problem=kreska pseudotaktowa	!	!	!	!	!	!	!	!	!	!	!
2F#X\	-ne-	-ne-	.	.	.	.	.	.	.	.	.
=2-	=2-	=2-	=2-	=2-	=2-	=2-	=2-	=2-	=2-	=2-	=2-
2.G\	-di-	-di-	1B-\	-di-	-di-	1d\	Be-	Be-	2r	.	.
.	.	.	.	.	.	.	.	.	1dd\	Be-	Be-
!LO:TX:t=P:problem=kreska pseudotaktowa	!	!	!	!	!	!	!	!	!	!	!
4Fny\	.	.	.	.	.	.	.	.	.	.	.
*lig	*	*	*	*	*	*	*	*	*	*	*
!LO:SIC:s=1E\	!	!	!LO:TX:t=P:problem=kreska pseudotaktowa	!	!	!LO:TX:t=P:problem=kreska pseudotaktowa	!	!	!	!	!
!	!	!	!	!	!	!LO:SIC:s=1e\	!	!	!	!	!
1En\	.	.	1G/	-cta	-cta	1en\	-ne-	-ne-	.	.	.
*	*	*	*	*	*	*	*	*	*2\right	*	*
!	!	!	!	!	!	!	!	!	!LO:TX:t=P:problem=kreska pseudotaktowa	!	!
.	.	.	.	.	.	.	.	.	2cc#X\	-ne-	-ne-
=3-	=3-	=3-	=3-	=3-	=3-	=3-	=3-	=3-	=3-	=3-	=3-
1D\	.	.	1d\	et	et	1f\	-di-	-di-	2.dd\	-di-	-di-
.	.	.	.	.	.	.	.	.	4ccny\	.	.
*Xlig	*	*	*2\right	*	*	*	*	*	*	*	*
!LO:TX:t=P:problem=kreska pseudotaktowa	!	!	!	!	!	!LO:TX:t=P:problem=kreska pseudotaktowa	!	!	!	!	!
1GG/,	-cta.	-cta,	2d\	Ve-	ve-	1d\	-cta	-cta	2b-X\	.	.
!	!	!	!LO:TX:t=P:problem=kreska pseudotaktowa	!	!	!	!	!	!LO:TX:t=P:problem=kreska pseudotaktowa	!	!
.	.	.	2d\	-ne-	-ne-	.	.	.	2g\	-cta	-cta,
=4-	=4-	=4-	=4-	=4-	=4-	=4-	=4-	=4-	=4-	=4-	=4-
00r	.	.	2.B-\	-ra-	-ra-	1g\	et	et	1r	.	.
.	.	.	4A/	-bi-	-bi-	.	.	.	.	.	.
*	*	*	*	*	*	*2\right	*	*	*	*	*
.	.	.	2G,/	-lis	-lis	2g\	Ve-	ve-	1g\	Be-	be-
!	!	!	!LO:TX:t=P:problem=kreska pseudotaktowa	!	!	!LO:TX:t=P:problem=kreska pseudotaktowa	!	!	!	!	!
.	.	.	2e-X\	es	es,	2g\	-ne-	-ne-	.	.	.
=5-	=5-	=5-	=5-	=5-	=5-	=5-	=5-	=5-	=5-	=5-	=5-
.	.	.	2.d\	Vir-	Vir-	2.f\	-ra-	-ra-	1a\	-ne-	-ne-
.	.	.	4c\	.	.	4e-i\	-bi-	-bi-	.	.	.
.	.	.	2B-,\	-go	-go	2d,\	-lis	-lis	1b-\	-di-	-di-
!	!	!	!	!	!	!LO:TX:t=P:problem=kreska pseudotaktowa	!	!	!	!	!
.	.	.	2B-\	Ma-	Ma-	2d\	es	es,	.	.	.
=6-	=6-	=6-	=6-	=6-	=6-	=6-	=6-	=6-	=6-	=6-	=6-
!LO:TX:t=P:problem=kreska pseudotaktowa	!	!	!	!	!	!	!	!	!	!	!
*	*	*	*lig	*	*	*	*	*	*	*	*
!	!	!	!	!	!	!	!	!	!LO:TX:t=P:problem=kreska pseudotaktowa	!	!
1r	.	.	1c\	-ri-	-ri-	4e-y\	Vir-	Vir-	1g\,	-cta	-cta,
.	.	.	.	.	.	4f\	.	.	.	.	.
.	.	.	.	.	.	1g\	-go	-go	.	.	.
*	*	*	*	*	*	*	*	*	*	*ij	*ij
1D\	Be-	be-	1d\	.	.	.	.	.	2.dd\	Be-	be-
!	!	!	!	!	!	!LO:TX:t=P:problem=kreska pseudotaktowa	!	!	!	!	!
.	.	.	.	.	.	2f#X\	Ma-	Ma-	.	.	.
.	.	.	.	.	.	.	.	.	4dd\	-ne-	-ne-
*	*	*	*Xlig	*	*	*	*	*	*	*	*
=7-	=7-	=7-	=7-	=7-	=7-	=7-	=7-	=7-	=7-	=7-	=7-
!LO:TX:t=P:problem=kreska pseudotaktowa	!	!	!LO:TX:t=P:problem=kreska pseudotaktowa	!	!	!	!	!	!	!	!
!LO:SIC:s=1E\	!	!	!	!	!	!	!	!	!	!	!
1En\	-ne-	-ne-	1G/,	-a	-a,	1g\	-ri-	-ri-	(2dd\	-di-	-di-
!	!	!	!	!	!	!	!	!	!LO:TX:t=P:problem=kreska pseudotaktowa	!	!
.	.	.	.	.	.	.	.	.	2cc\)	.	.
!	!	!	!LO:TX:t=P:problem=kreska pseudotaktowa	!	!	!	!	!	!	!	!
1F\	-di-	-di-	1r	.	.	2.a,\	-a	-a,	2dd,\	-cta	-cta
*	*	*	*	*	*	*	*	*	*	*Xij	*Xij
!	!	!	!	!	!	!	!	!	!LO:TX:t=P:problem=kreska pseudotaktowa	!	!
.	.	.	.	.	.	.	.	.	2dd\	et	et
*	*	*	*	*	*	*	*ij	*ij	*	*	*
.	.	.	.	.	.	4g\	Ma-	Ma-	.	.	.
=8-	=8-	=8-	=8-	=8-	=8-	=8-	=8-	=8-	=8-	=8-	=8-
!LO:TX:t=P:problem=kreska pseudotaktowa	!	!	!	!	!	!LO:SIC:s=(2.f\	!	!	!	!	!
1D\,	-cta	-cta	1d\	et	et	(2.fn\	-ri-	-ri-	2dd\	Ve-	ve-
!	!	!	!	!	!	!	!	!	!LO:TX:t=P:problem=kreska pseudotaktowa	!	!
.	.	.	.	.	.	.	.	.	2dd\	-ne-	-ne-
.	.	.	.	.	.	4eny\)	.	.	.	.	.
!LO:TX:t=P:problem=kreska pseudotaktowa	!	!	!	!	!	!LO:TX:t=P:problem=kreska pseudotaktowa	!	!	!LO:LB:g=original	!	!
1G\	et	et	2d\	ve-	ve-	1d\,	-a	-a	2.b-\	-ra-	-ra-
*	*	*	*	*	*	*	*Xij	*Xij	*	*	*
!	!	!	!LO:TX:t=P:problem=kreska pseudotaktowa	!	!	!	!	!	!	!	!
.	.	.	2d\	-ne-	-ne-	.	.	.	.	.	.
!	!	!	!	!	!	!	!	!	!LO:TX:t=P:problem=kreska pseudotaktowa	!	!
.	.	.	.	.	.	.	.	.	4a\	-bi-	-bi-
!	!	!	!LO:LB:g=original	!	!	!	!	!	!	!	!
=9-	=9-	=9-	=9-	=9-	=9-	=9-	=9-	=9-	=9-	=9-	=9-
!	!	!	!	!	!	!LO:TX:t=P:problem=kreska pseudotaktowa	!	!	!	!	!
!	!	!	!	!	!	!LO:TX:a:t=1.:mod=	!	!	!	!	!
2G\	Ve-	ve-	2.B-\	-ra-	-ra-	1r	.	.	2g,/	-lis	-lis
!LO:TX:t=P:problem=kreska pseudotaktowa	!	!	!	!	!	!	!	!	!	!	!
2G\	-ne-	-ne-	.	.	.	.	.	.	2g/	es	es,
.	.	.	4B-\	-bi-	-bi-	.	.	.	.	.	.
!LO:LB:g=original	!	!	!	!	!	!LO:LB:g=original	!	!	!	!	!
!	!	!	!	!	!	!LO:TX:t=P:problem=kreska pseudotaktowa	!	!	!LO:TX:t=P:problem=kreska pseudotaktowa	!	!
!LO:SIC:s=2.F\	!	!	!	!	!	!LO:SIC:s=1f\	!	!	!	!	!
2.Fn\	-ra-	-ra-	2A,/	-lis	-lis	1fn\	et	et	1a\	Vir-	Vir-
!	!	!	!LO:TX:t=P:problem=kreska pseudotaktowa	!	!	!	!	!	!	!	!
.	.	.	2A/	es	es,	.	.	.	.	.	.
!LO:TX:t=P:problem=kreska pseudotaktowa	!	!	!	!	!	!	!	!	!	!	!
4E\	-bi-	-bi-	.	.	.	.	.	.	.	.	.
=10-	=10-	=10-	=10-	=10-	=10-	=10-	=10-	=10-	=10-	=10-	=10-
2D,/	-lis	-lis	2d\	Vir-	Vir-	2f\	Ve-	ve-	2b-,\	-go	-go
!LO:TX:t=P:problem=kreska pseudotaktowa	!	!	!	!	!	!LO:TX:t=P:problem=kreska pseudotaktowa	!	!	!	!	!
2D/	es	es,	1d\	-go	-go	2f\	-ne-	-ne-	2b-\	Ma-	Ma-
1E-X\	Vir-	Vir-	.	.	.	2.g\	-ra-	-ra-	(2g\	-ri-	-ri-
!	!	!	!LO:TX:t=P:problem=kreska pseudotaktowa	!	!	!	!	!	!LO:TX:t=P:problem=kreska pseudotaktowa	!	!
.	.	.	2c\	Ma-	Ma-	.	.	.	2cc\)	.	.
.	.	.	.	.	.	4g\	-bi-	-bi-	.	.	.
=11-	=11-	=11-	=11-	=11-	=11-	=11-	=11-	=11-	=11-	=11-	=11-
2D,/	-go	-go	1d\	-ri-	-ri-	2f#X,\	-lis	-lis,	2a,\	-a	-a,
*lig	*	*	*	*	*	*	*	*	*	*	*
1BB-/	Ma-	Ma-	.	.	.	1d\	Vir-	Vir-	2.b-\	Vir-	Vir-
.	.	.	2G,/	-a	-a,	.	.	.	.	.	.
.	.	.	.	.	.	.	.	.	4a\	.	.
!	!	!	!	!	!	!	!	!	!LO:TX:t=P:problem=kreska pseudotaktowa	!	!
1C/	.	.	2G/	Vir-	Vir-	1e,\	-go	-go	2g/	-go	-go
*Xlig	*	*	*	*	*	*	*	*	*	*	*
=12-	=12-	=12-	=12-	=12-	=12-	=12-	=12-	=12-	=12-	=12-	=12-
!	!	!	!LO:TX:t=P:problem=kreska pseudotaktowa	!	!	!	!	!	!	!	!
.	.	.	[<1A	-go	-go	.	.	.	2.cc\	Ma-	Ma-
*	*	*	*	*	*	*lig	*	*	*	*	*
1D\	-ri-	-ri-	.	.	.	1f#X\	Ma-	Ma-	.	.	.
.	.	.	.	.	.	.	.	.	4b-\	-ri-	.
.	.	.	2A/],	.	.	.	.	.	(2a\	.	-ri-
!LO:TX:t=P:problem=kreska pseudotaktowa	!	!	!	!	!	!	!	!	!LO:TX:t=P:problem=kreska pseudotaktowa	!	!
2C/	.	.	2e-X\	Ma-	Ma-	1g\	.	.	2cc\)	.	.
*	*	*	*	*	*	*Xlig	*	*	*	*	*
=13-	=13-	=13-	=13-	=13-	=13-	=13-	=13-	=13-	=13-	=13-	=13-
!LO:TX:t=P:problem=kreska pseudotaktowa	!	!	!	!	!	!	!	!	!	!	!
1D\	.	.	1d\	-ri-	-ri-	.	.	.	1a\	.	.
.	.	.	.	.	.	2f#X\	-ri-	-ri-	.	.	.
!LO:TX:t=P:problem=kreska pseudotaktowa	!	!	!LO:TX:t=P:problem=kreska pseudotaktowa	!	!	!LO:TX:t=P:problem=kreska pseudotaktowa	!	!	!	!	!
1GG/,	-a.	-a:	1d\	-a	-a:	1g\	-a	-a:	2b-,\	-a	-a:
!	!	!	!	!	!	!	!	!	!LO:TX:t=P:problem=kreska pseudotaktowa	!	!
.	.	.	.	.	.	.	.	.	2g/	quae	quae
=14-	=14-	=14-	=14-	=14-	=14-	=14-	=14-	=14-	=14-	=14-	=14-
2r	.	.	0r	.	.	1r	.	.	2g/	si-	si-
!LO:TX:t=P:problem=kreska pseudotaktowa	!	!	!	!	!	!	!	!	!	!	!
2G\	Quae	quae	.	.	.	.	.	.	2g/	-ne	-ne
!	!	!	!	!	!	!	!	!	!LO:TX:t=P:problem=kreska pseudotaktowa	!	!
2G\	si-	si-	.	.	.	2r	.	.	1b-\	ta-	ta-
!LO:TX:t=P:problem=kreska pseudotaktowa	!	!	!	!	!	!LO:TX:t=P:problem=kreska pseudotaktowa	!	!	!	!	!
2G\	-ne	-ne	.	.	.	2d\	Quae	quae	.	.	.
=15-	=15-	=15-	=15-	=15-	=15-	=15-	=15-	=15-	=15-	=15-	=15-
!LO:TX:t=P:problem=kreska pseudotaktowa	!	!	!	!	!	!	!	!	!	!	!
1B-\	tac-	ta-	2r	.	.	2d\	si-	si-	(4b-\	-ctu	-ctu
.	.	.	.	.	.	.	.	.	4a\)	.	.
!	!	!	!LO:TX:t=P:problem=kreska pseudotaktowa	!	!	!	!	!	!	!	!
.	.	.	2d\	quae	quae	2d\	-ne	-ne	(4b-\	pu-	pu-
!	!	!	!	!	!	!	!	!	!LO:TX:t=P:problem=kreska pseudotaktowa	!	!
.	.	.	.	.	.	.	.	.	4cc\)	.	.
!	!	!	!	!	!	!	!	!	!LO:LB:g=original	!	!
2B-,\	-tu	-ctu	2d\	si-	si-	1fny\	ta-	ta-	1dd\	-do-	-do-
!LO:TX:t=P:problem=kreska pseudotaktowa	!	!	!LO:TX:t=P:problem=kreska pseudotaktowa	!	!	!	!	!	!	!	!
2B-\	Pu-	pu-	2d\	-ne	-ne	.	.	.	.	.	.
=16-	=16-	=16-	=16-	=16-	=16-	=16-	=16-	=16-	=16-	=16-	=16-
!	!	!	!	!	!	!LO:TX:t=P:problem=kreska pseudotaktowa	!	!	!	!	!
(4A\	-do-	-do-	1f\	ta-	ta-	1c\	-ctu	-ctu,	2cc,\	-ris	-ris,
4G\	.	.	.	.	.	.	.	.	.	.	.
4A\	.	.	.	.	.	.	.	.	1cc\	quae	quae
!LO:TX:t=P:problem=kreska pseudotaktowa	!	!	!	!	!	!	!	!	!	!	!
4B-\)	.	.	.	.	.	.	.	.	.	.	.
*custos:c	*	*	*	*	*	*	*	*	*	*	*
!LO:LB:g=original	!	!	!LO:SIC:s=(4e\	!	!	!	!	!	!	!	!
1c\	.	.	(4en\	-ctu	-ctu	2r	.	.	.	.	.
.	.	.	4d\)	.	.	.	.	.	.	.	.
!	!	!	!	!	!	!	!	!	!LO:TX:t=P:problem=kreska pseudotaktowa	!	!
.	.	.	(4e\	pu-	pu-	2g\	quae	quae	2cc\	si-	si-
!	!	!	!LO:TX:t=P:problem=kreska pseudotaktowa	!	!	!	!	!	!	!	!
.	.	.	4f\)	.	.	.	.	.	.	.	.
=17-	=17-	=17-	=17-	=17-	=17-	=17-	=17-	=17-	=17-	=17-	=17-
!LO:SIC:s=2.B-\	!	!	!	!	!	!	!	!	!	!	!
2.B-X\	.	.	2g\	-do-	-do-	2g\	si-	si-	2.dd\	-ne	-ne
!	!	!	!	!	!	!LO:TX:t=P:problem=kreska pseudotaktowa	!	!	!	!	!
.	.	.	1d\	.	.	2g\	-ne	-ne	.	.	.
!LO:TX:t=P:problem=kreska pseudotaktowa	!	!	!	!	!	!	!	!	!	!	!
4A\	.	.	.	.	.	.	.	.	4cc\	.	.
*lig	*	*	*	*	*	*	*	*	*	*	*
!	!	!	!	!	!	!LO:TX:t=P:problem=kreska pseudotaktowa	!	!	!	!	!
1G\	.	.	.	.	.	1b-\	ta-	ta-	2b-,\	.	.
!	!	!	!LO:TX:t=P:problem=kreska pseudotaktowa	!	!	!	!	!	!LO:TX:t=P:problem=kreska pseudotaktowa	!	!
!	!	!	!LO:SIC:s=[2e\	!	!	!	!	!	!	!	!
.	.	.	[<2en\	.	.	.	.	.	2g/	ta-	ta-
!	!	!	!	!	!	!LO:TX:t=P:problem=kasownik an	!	!	!	!	!
!	!	!	!LO:LB:g=original	!	!	!LO:LB:g=original	!	!	!	!	!
=18-	=18-	=18-	=18-	=18-	=18-	=18-	=18-	=18-	=18-	=18-	=18-
!LO:TX:t=P:problem=kreska pseudotaktowa	!	!	!LO:TX:t=P:problem=brak zakończenia łuku	!	!	!	!	!	!	!	!
1A\	.	.	2e\]	.	.	2a\	ta-	.	1cc\,	-ctu	-ctu
*Xlig	*	*	*	*	*	*	*	*	*	*	*
!	!	!	!LO:TX:t=P:problem=kreska pseudotaktowa	!	!	!	!	!	!	!	!
.	.	.	2c#X\	.	.	1g\	-ctus	-ctu	.	.	.
*lig	*	*	*	*	*	*	*	*	*	*	*
!LO:SIC:s=1B-\	!	!	!	!	!	!	!	!	!	!	!
1B-X\	.	.	1.d\	.	.	.	.	.	(2b-\	pu-	pu-
!	!	!	!	!	!	!LO:SIC:s=1f\	!	!	!LO:TX:t=P:problem=kreska pseudotaktowa	!	!
.	.	.	.	.	.	1fn\	pu-	pu-	2dd\)	.	.
=19-	=19-	=19-	=19-	=19-	=19-	=19-	=19-	=19-	=19-	=19-	=19-
!LO:TX:t=P:problem=kreska pseudotaktowa	!	!	!	!	!	!	!	!	!	!	!
1A\	.	.	.	.	.	.	.	.	1a\	-do-	-do-
!	!	!	!LO:TX:t=P:problem=kreska pseudotaktowa	!	!	!LO:TX:t=P:problem=kreska pseudotaktowa	!	!	!	!	!
.	.	.	2c#X\	.	.	2e\	-do-	-do-	.	.	.
*Xlig	*	*	*	*	*	*	*	*	*	*	*
2D,/	-ris	-ris	2d,\	-ris	-ris	2d,\	-ris	-ris	2a,\	-ris	-ris
!LO:TX:t=P:problem=kreska pseudotaktowa	!	!	!	!	!	!	!	!	!LO:TX:t=P:problem=kreska pseudotaktowa	!	!
2D/	in-	in-	2d\	In-	in-	2f#X\	in-	in-	2a\	in-	in-
=20-	=20-	=20-	=20-	=20-	=20-	=20-	=20-	=20-	=20-	=20-	=20-
2G\	-ven-	-ven-	2d\	-ven-	-ven-	2g\	-ven-	-ven-	2b-\	-ven-	-ven-
!LO:TX:t=P:problem=kreska pseudotaktowa	!	!	!LO:TX:t=P:problem=kreska pseudotaktowa	!	!	!LO:TX:t=P:problem=kreska pseudotaktowa	!	!	!LO:TX:t=P:problem=kreska pseudotaktowa	!	!
2E-X\	-ta	-ta	2cn\	-ta	-ta	2g\	-ta	-ta	2g/	-ta	-ta
2D/	es.	es	2d,\	es	es,	2f#X,\	es	es	2dd,\	es	es,
!LO:TX:t=P:problem=kreska pseudotaktowa	!	!	!	!	!	!	!	!	!LO:TX:t=P:problem=kreska pseudotaktowa	!	!
*	*	*	*	*ij	*ij	*	*	*	*	*	*
2r	.	.	2G/	In-	in-	1g\	Ma-	ma-	2b-\	in-	in-
=21-	=21-	=21-	=21-	=21-	=21-	=21-	=21-	=21-	=21-	=21-	=21-
!LO:TX:t=P:problem=kreska pseudotaktowa	!	!	!	!	!	!	!	!	!	!	!
1r	.	.	2c\	-ven-	-ven-	.	.	.	2cc\	-ven-	-ven-
!	!	!	!LO:TX:t=P:problem=kreska pseudotaktowa	!	!	!	!	!	!LO:TX:t=P:problem=kreska pseudotaktowa	!	!
.	.	.	2A\	-ta	-ta	2f#X\	-ter	.	2cc\	-ta	-ta
!	!	!	!	!	!	!LO:TX:t=P:problem=kreska pseudotaktowa	!	!	!	!	!
1G\	Ma-	ma-	2G,/	es	es	1g\	.	-ter,	2b-\	es	es
*	*	*	*	*Xij	*Xij	*	*	*	*	*	*
!	!	!	!	!	!	!	!	!	!LO:TX:t=P:problem=kreska pseudotaktowa	!	!
.	.	.	1d\	Ma-	ma-	.	.	.	2r	.	.
!	!	!	!	!	!	!	!	!	!LO:LB:g=original	!	!
=22-	=22-	=22-	=22-	=22-	=22-	=22-	=22-	=22-	=22-	=22-	=22-
!	!	!	!	!	!	!LO:TX:t=P:problem=kreska pseudotaktowa	!	!	!	!	!
2F#X\	-ter	-ter	.	.	.	1r	.	.	1dd\	Ma-	ma-
1G\	Sal-	Sal-	1B-\	-ter	-ter	.	.	.	.	.	.
.	.	.	.	.	.	1g\	Ma-	ma-	2dd,\	-ter	-ter
!LO:SIC:s=1E-\	!	!	!LO:TX:t=P:problem=kreska pseudotaktowa	!	!	!	!	!	!	!	!
1E-X\	-va-	-va-	[<2c\	Sal-	Sal-	.	.	.	1cc\	.	Sal-
=23-	=23-	=23-	=23-	=23-	=23-	=23-	=23-	=23-	=23-	=23-	=23-
.	.	.	2c\]	.	.	2g\	-ter	-ter	.	.	.
!	!	!	!	!	!	!LO:SIC:s=1f\	!	!	!LO:TX:t=P:problem=kreska pseudotaktowa	!	!
1Fny\	-to-	-to-	1A\	-va-	-va-	1fn\	Sal-	Sal-	2cc\	Sal-	-va-
.	.	.	.	.	.	.	.	.	2cc\	-va-	-to-
!LO:TX:t=P:problem=kreska pseudotaktowa	!	!	!LO:SIC:s=1B-\	!	!	!LO:TX:t=P:problem=kreska pseudotaktowa	!	!	!	!	!
2D/	.	.	1B-X\	-to-	-to-	2f\	-va-	-va-	[2b-\	-to-	.
*custos:BB	*	*	*	*	*	*	*	*	*	*	*
!LO:LB:g=original	!	!	!	!	!	!	!	!	!	!	!
=24-	=24-	=24-	=24-	=24-	=24-	=24-	=24-	=24-	=24-	=24-	=24-
2BB-/	.	.	.	.	.	2f\	-to-	-to-	1.b-\]	.	.
1E-X\	.	.	1G/	.	.	1e-X\,	-ris	-ris,	.	.	.
!LO:TX:t=P:problem=kreska pseudotaktowa	!	!	!	!	!	!LO:TX:t=P:problem=kreska pseudotaktowa	!	!	!	!	!
2C/	.	.	1A\	.	.	2e-\	Sal-	Sal-	4a\	.	.
!	!	!	!	!	!	!	!	!	!LO:TX:t=P:problem=kreska pseudotaktowa	!	!
.	.	.	.	.	.	.	.	.	4g\	.	.
=25-	=25-	=25-	=25-	=25-	=25-	=25-	=25-	=25-	=25-	=25-	=25-
0D\	.	.	.	.	.	4d/	-va-	-va-	2f#X/	.	.
.	.	.	.	.	.	4c/	.	.	.	.	.
!	!	!	!LO:TX:t=P:problem=kreska pseudotaktowa	!	!	!	!	!	!	!	!
.	.	.	2B-\	.	.	4B-/	.	.	1g\	.	.
.	.	.	.	.	.	4c/	.	.	.	.	.
.	.	.	1A\	.	.	1d\	to-	to-	.	.	.
!	!	!	!	!	!	!	!	!	!LO:SIC:s=2f#/	!	!
.	.	.	.	.	.	.	.	.	2f#X/	.	.
=26-	=26-	=26-	=26-	=26-	=26-	=26-	=26-	=26-	=26-	=26-	=26-
0GG/;	-ris.	-ris.	0Bn\;	-ris.	-ris.	0d\;	-ris	-ris.	0g\;	-ris.	-ris.
!	!	!	!LO:LB:g=original	!	!	!LO:LB:g=original	!	!	!	!	!
=27||-	=27||-	=27||-	=27||-	=27||-	=27||-	=27||-	=27||-	=27||-	=27||-	=27||-	=27||-
*M2/1	*	*	*M2/1	*	*	*M2/1	*	*	*M2/1	*	*
*met(C|)	*	*	*met(C|)	*	*	*met(C|)	*	*	*met(C|)	*	*
*mmet(c|)	*	*	*mmet(c|)	*	*	*mmet(c|)	*	*	*mmet(c|)	*	*
*k[b-]	*	*	*	*	*	*	*	*	*	*	*
!LO:TX:t=P:problem=znaki: w źródle B- nad BB-	!	!	!	!	!	!	!	!	!	!	!
!LO:TX:t=P:problem=kreska pseudotaktowa	!	!	!LO:TX:t=P:problem=kreska pseudotaktowa	!	!	!LO:TX:t=P:problem=kreska pseudotaktowa	!	!	!	!	!
1D\	Vir-	Vir-	0r	.	.	00r	.	.	00r	.	.
!LO:TX:t=P:problem=kreska pseudotaktowa	!	!	!	!	!	!	!	!	!	!	!
1D\	-go	-go	.	.	.	.	.	.	.	.	.
=28-	=28-	=28-	=28-	=28-	=28-	=28-	=28-	=28-	=28-	=28-	=28-
2.G\	De-	De-	1G/	Vir-	Vir-	.	.	.	.	.	.
!LO:TX:t=P:problem=kreska pseudotaktowa	!	!	!	!	!	!	!	!	!	!	!
4F\	.	.	.	.	.	.	.	.	.	.	.
!	!	!	!LO:TX:t=P:problem=kreska pseudotaktowa	!	!	!	!	!	!	!	!
2E-X\	.	.	1G/	-go	-go	.	.	.	.	.	.
!LO:TX:t=P:problem=kreska pseudotaktowa	!	!	!	!	!	!	!	!	!	!	!
2C/	-i	-i	.	.	.	.	.	.	.	.	.
=29-	=29-	=29-	=29-	=29-	=29-	=29-	=29-	=29-	=29-	=29-	=29-
!	!	!	!	!	!	!	!	!	!LO:TX:t=P:problem=kreska pseudotaktowa	!	!
2.D\	Ge-	Ge-	2.d\	De-	De-	1d\	Vir-	Vir-	0r	.	.
!LO:TX:t=P:problem=kreska pseudotaktowa	!	!	!	!	!	!	!	!	!	!	!
4D\	-ni-	-ni-	4c\	.	.	.	.	.	.	.	.
!	!	!	!	!	!	!LO:TX:t=P:problem=kreska pseudotaktowa	!	!	!	!	!
2GG,/	-trix	-trix,	4B-y\	.	.	1d\	-go	-go	.	.	.
.	.	.	4c\	.	.	.	.	.	.	.	.
!LO:TX:t=P:problem=kreska pseudotaktowa	!	!	!	!	!	!	!	!	!	!	!
!LO:TX:a:t=P:problem=custos E z bemolem	!	!	!	!	!	!	!	!	!	!	!
2G\	Quem	quem	4B-\	.	.	.	.	.	.	.	.
!	!	!	!LO:TX:t=P:problem=kreska pseudotaktowa	!	!	!	!	!	!	!	!
.	.	.	4A\	.	.	.	.	.	.	.	.
*custos:E	*	*	*	*	*	*	*	*	*	*	*
!LO:LB:g=original	!	!	!	!	!	!	!	!	!	!	!
=30-	=30-	=30-	=30-	=30-	=30-	=30-	=30-	=30-	=30-	=30-	=30-
2.E-X\	to-	to-	4G/	.	.	2.g\	De-	De-	1g\	Vir-	Vir-
.	.	.	4A/	.	.	.	.	.	.	.	.
.	.	.	4B-/	.	.	.	.	.	.	.	.
!LO:TX:t=P:problem=kreska pseudotaktowa	!	!	!	!	!	!	!	!	!	!	!
4D/	.	.	4G/	.	.	4f\	.	.	.	.	.
!	!	!	!	!	!	!	!	!	!LO:TX:t=P:problem=kreska pseudotaktowa	!	!
4C,/	.	.	2c\	.	.	2e-X\	.	.	1g\	-go	-go
4D/	.	.	.	.	.	.	.	.	.	.	.
!LO:SIC:s=4E-/	!	!	!LO:TX:t=P:problem=kreska pseudotaktowa	!	!	!LO:TX:t=P:problem=kreska pseudotaktowa	!	!	!	!	!
4E-X/	.	.	2c\	-i	-i	2c,/	-i	-i	.	.	.
!LO:TX:t=P:problem=kreska pseudotaktowa	!	!	!	!	!	!	!	!	!	!	!
4C/	.	.	.	.	.	.	.	.	.	.	.
=31-	=31-	=31-	=31-	=31-	=31-	=31-	=31-	=31-	=31-	=31-	=31-
!	!	!	!LO:SIC:s=2.B-\	!	!	!	!	!	!	!	!
4D\	.	.	2.B-X\	Ge-	Ge-	2f\	Ge-	Ge-	2.dd\	De-	De-
4Eny\	.	.	.	.	.	.	.	.	.	.	.
4F\	.	.	.	.	.	2d\	-ni-	.	.	.	.
!LO:TX:t=P:problem=kreska pseudotaktowa	!	!	!	!	!	!	!	!	!	!	!
4D\	.	.	4A/	-ni-	-ni-	.	.	.	4cc\	.	.
4E-X\	.	.	2G,/	-trix	-trix,	2.g\	.	.	2b-\	.	.
4F\	.	.	.	.	.	.	.	.	.	.	.
!	!	!	!	!	!	!	!	!	!LO:TX:t=P:problem=kreska pseudotaktowa	!	!
4G\	.	.	4e-X\	De-	De-	.	.	.	2g,/	-i	-i
!LO:TX:t=P:problem=kreska pseudotaktowa	!	!	!LO:TX:t=P:problem=kreska pseudotaktowa	!	!	!	!	!	!	!	!
4E-\	.	.	4d\	.	.	4g\	-trix	-ni-	.	.	.
=32-	=32-	=32-	=32-	=32-	=32-	=32-	=32-	=32-	=32-	=32-	=32-
!LO:TX:t=P:problem=kreska pseudotaktowa	!	!	!	!	!	!LO:TX:t=P:problem=kreska pseudotaktowa	!	!	!	!	!
0F\	.	.	2c\	.	.	1f\,	.	-trix,	2a\	Ge-	Ge-
!	!	!	!LO:TX:t=P:problem=kreska pseudotaktowa	!	!	!	!	!	!	!	!
.	.	.	2d\	-i	-i	.	.	.	1b-\	.	.
.	.	.	2.c\	Ge-	Ge-	2r	.	.	.	.	.
!	!	!	!	!	!	!	!	!	!LO:TX:t=P:problem=kreska pseudotaktowa	!	!
.	.	.	.	.	.	2f\	quem	quem	2a\	-ni-	-ni-
.	.	.	4c\	-ni-	-ni-	.	.	.	.	.	.
!	!	!	!	!	!	!	!	!	!LO:LB:g=original	!	!
=33-	=33-	=33-	=33-	=33-	=33-	=33-	=33-	=33-	=33-	=33-	=33-
!	!	!	!LO:TX:t=P:problem=kreska pseudotaktowa	!	!	!	!	!	!	!	!
2BB-,/	-tua	-tus	1d\	-trix	-trix,	4f\	to-	to-	2b-,\	-trix	-trix,
.	.	.	.	.	.	4e-i\	.	.	.	.	.
!LO:TX:t=P:problem=kreska pseudotaktowa	!	!	!	!	!	!	!	!	!	!	!
2B-\	non	non	.	.	.	4d\	.	.	2ff\	quem	quem
.	.	.	.	.	.	4c\	.	.	.	.	.
!LO:TX:t=P:problem=kreska pseudotaktowa	!	!	!	!	!	!	!	!	!	!	!
1B-\	Ca-	ca-	2r	.	.	2B-,/	-tus	-tus	4ff\	.	to-
.	.	.	.	.	.	.	.	.	4ee-X\	to-	.
!	!	!	!LO:TX:t=P:problem=kreska pseudotaktowa	!	!	!LO:TX:t=P:problem=kreska pseudotaktowa	!	!	!	!	!
.	.	.	2d\	quem	quem	2b-\	non	non	4dd\	.	.
!	!	!	!	!	!	!	!	!	!LO:TX:t=P:problem=kreska pseudotaktowa	!	!
.	.	.	.	.	.	.	.	.	4cc\	.	.
=34-	=34-	=34-	=34-	=34-	=34-	=34-	=34-	=34-	=34-	=34-	=34-
2E-X,\	-pit	-pit,	2.B-\	to-	to-	1b-\	Ca-	ca-	2b-,\	-tus	-tus
!LO:TX:t=P:problem=kreska pseudotaktowa	!	!	!	!	!	!	!	!	!	!	!
2G\	quem	quem	.	.	.	.	.	.	2b-\	non	non
!	!	!	!LO:TX:t=P:problem=kreska pseudotaktowa	!	!	!	!	!	!	!	!
.	.	.	4A/	.	.	.	.	.	.	.	.
!	!	!	!LO:LB:g=original	!	!	!	!	!	!	!	!
!LO:TX:t=P:problem=kreska pseudotaktowa	!	!	!	!	!	!	!	!	!LO:TX:t=P:problem=kreska pseudotaktowa	!	!
1G\	to-	to-	2G,/	-tus	-tus	2g,\	-pit	-pit,	1b-\	ca-	ca-
!	!	!	!	!	!	!LO:TX:t=P:problem=kreska pseudotaktowa	!	!	!	!	!
.	.	.	2g\	non	non	2g\	non	non	.	.	.
=35-	=35-	=35-	=35-	=35-	=35-	=35-	=35-	=35-	=35-	=35-	=35-
2C,/	-t(us)	-t(us)	1g\	ca-	ca-	4g\	.	.	2g,/	-pit	-pit,
.	.	.	.	.	.	4f\	.	.	.	.	.
2c\	non	non	.	.	.	4e-X\	.	.	2ee-X\	non	non
.	.	.	.	.	.	4d\	.	.	.	.	.
1c\	ca-	ca-	2c,\	-pit	-pit,	4c/	Ca-	ca-	2.ee-\	Ca-	ca-
.	.	.	.	.	.	4d/	.	.	.	.	.
!	!	!	!LO:TX:t=P:problem=kreska pseudotaktowa	!	!	!LO:SIC:s=4e-/	!	!	!	!	!
.	.	.	2c\	non	non	4e-X/	.	.	.	.	.
!	!	!	!	!	!	!LO:TX:t=P:problem=kreska pseudotaktowa	!	!	!	!	!
.	.	.	.	.	.	4c/	.	.	4dd\	.	.
!	!	!	!	!	!	!LO:LB:g=original	!	!	!	!	!
=36-	=36-	=36-	=36-	=36-	=36-	=36-	=36-	=36-	=36-	=36-	=36-
!LO:TX:t=P:problem=kreska pseudotaktowa	!	!	!	!	!	!	!	!	!	!	!
1F\,	-pit	-pit	2.c\	ca-	ca-	2.f\	.	.	4cc\	.	.
.	.	.	.	.	.	.	.	.	4cc,\	-pit	-pit
.	.	.	.	.	.	.	.	.	1cc\	or-	or-
!	!	!	!LO:TX:t=P:problem=kreska pseudotaktowa	!	!	!LO:TX:t=P:problem=kreska pseudotaktowa	!	!	!	!	!
.	.	.	4c\	-pit	-pit	4e-X,\	-pit	-pit	.	.	.
*custos:G	*	*	*	*	*	*	*	*	*	*	*
!LO:LB:g=original	!	!	!	!	!	!	!	!	!	!	!
!LO:TX:t=P:problem=kreska pseudotaktowa	!	!	!	!	!	!	!	!	!	!	!
1G\	or-	or-	1G/	or-	or-	1d\	or-	or-	.	.	.
!	!	!	!	!	!	!	!	!	!LO:TX:t=P:problem=kreska pseudotaktowa	!	!
.	.	.	.	.	.	.	.	.	2bn\	.	.
=37-	=37-	=37-	=37-	=37-	=37-	=37-	=37-	=37-	=37-	=37-	=37-
!LO:TX:t=P:problem=kreska pseudotaktowa	!	!	!	!	!	!LO:TX:t=P:problem=kreska pseudotaktowa	!	!	!	!	!
1C/	-bis.	-bis,	2G,/	-bis.	-bis,	1e-X\	-bis	-bis,	2cc,\	-bis.	-bis,
.	.	.	1c\	In	in	.	.	.	2ee-X\	In	in
00r	.	.	.	.	.	1r	.	.	1dd\	tu-	tu-
!	!	!	!LO:TX:t=P:problem=kreska pseudotaktowa	!	!	!	!	!	!	!	!
.	.	.	2Bn\	tu-	tu-	.	.	.	.	.	.
=38-	=38-	=38-	=38-	=38-	=38-	=38-	=38-	=38-	=38-	=38-	=38-
.	.	.	2c\	-a	-a	2r	.	.	2cc\	-a	-a
!	!	!	!	!	!	!	!	!	!LO:TX:t=P:problem=kreska pseudotaktowa	!	!
.	.	.	2B-X\	se	se	1g\	In	in	2g/	se	se
!	!	!	!LO:TX:t=P:problem=kreska pseudotaktowa	!	!	!	!	!	!	!	!
.	.	.	1A-X\	clau-	clau-	.	.	.	1cc\	clau-	clau-
!	!	!	!	!	!	!LO:TX:t=P:problem=kreska pseudotaktowa	!	!	!	!	!
.	.	.	.	.	.	2f\	tu-	tu-	.	.	.
=39-	=39-	=39-	=39-	=39-	=39-	=39-	=39-	=39-	=39-	=39-	=39-
.	.	.	2G,/	-sit	-sit,	2g,\	-a	-a	2bn\	.	.
.	.	.	2.E-X/	clau-	clau-	2g\	se	se	2.g\	.	.
!LO:TX:t=P:problem=kreska pseudotaktowa	!	!	!	!	!	!	!	!	!	!	!
00r	.	.	.	.	.	1e-X\	clau-	clau-	.	.	.
.	.	.	4F/	.	.	.	.	.	4a-X\	.	.
.	.	.	4G/	.	.	.	.	.	4b-y\	.	.
!	!	!	!LO:TX:t=P:problem=kreska pseudotaktowa	!	!	!	!	!	!LO:TX:t=P:problem=kreska pseudotaktowa	!	!
.	.	.	4E-/	.	.	.	.	.	4g\	.	.
!	!	!	!	!	!	!	!	!	!LO:LB:g=original	!	!
=40-	=40-	=40-	=40-	=40-	=40-	=40-	=40-	=40-	=40-	=40-	=40-
.	.	.	4F/	.	.	2d,\	-sit	-sit,	4an/	.	.
.	.	.	4Eny/	.	.	.	.	.	4g/	.	.
.	.	.	4F/	.	.	2.f\	clau-	clau-	4a/	.	.
!	!	!	!LO:TX:t=P:problem=kreska pseudotaktowa	!	!	!	!	!	!LO:TX:t=P:problem=kreska pseudotaktowa	!	!
.	.	.	4G/	.	.	.	.	.	4b-/	.	.
.	.	.	2A-X/	.	.	.	.	.	1cc\	.	.
.	.	.	.	.	.	4d\	.	.	.	.	.
!	!	!	!LO:TX:t=P:problem=kreska pseudotaktowa	!	!	!	!	!	!	!	!
.	.	.	2F/	-sit	-sit	1f\	.	.	.	.	.
*	*	*	*custos:G	*	*	*	*	*	*	*	*
!	!	!	!LO:LB:g=original	!	!	!	!	!	!	!	!
=41-	=41-	=41-	=41-	=41-	=41-	=41-	=41-	=41-	=41-	=41-	=41-
.	.	.	1.G/	vis-	vi-	.	.	.	2bn/	-sit	-sit
!	!	!	!	!	!	!LO:TX:t=P:problem=kreska pseudotaktowa	!	!	!	!	!
.	.	.	.	.	.	2e-X,\	-ſit	-sit	1cc\	Vis-	vi-
*custos:G	*	*	*	*	*	*	*	*	*	*	*
!LO:TX:b:rj:t=Vertat:mod=	!	!	!	!	!	!	!	!	!	!	!
!LO:PB:g=original	!	!	!	!	!	!	!	!	!	!	!
2r	.	.	.	.	.	2.d\	Viſ-	vi-	.	.	.
!LO:TX:t=P:problem=kreska pseudotaktowa	!	!	!	!	!	!	!	!	!LO:SIC:s=2b\LO:TX:t=P:problem=kreska pseudotaktowa	!	!
2G\	Quem	quem	2G/	-ce-	-sce-	.	.	.	2bn\	-ce-	-sce-
!	!	!	!	!	!	!LO:TX:t=P:problem=kreska pseudotaktowa	!	!	!	!	!
.	.	.	.	.	.	4d\	-ce-	-sce-	.	.	.
=42-	=42-	=42-	=42-	=42-	=42-	=42-	=42-	=42-	=42-	=42-	=42-
!	!	!	!LO:TX:t=P:problem=kreska pseudotaktowa	!	!	!	!	!	!	!	!
(2.E-X/	to-	to-	1C/,	-ra	-ra,	2e-X,\	-ra	-ra,	1cc\,	-ra	-ra,
.	.	.	.	.	.	2g\	quem	quem	.	.	.
!LO:TX:t=P:problem=kreska pseudotaktowa	!	!	!	!	!	!	!	!	!	!	!
4D/)	.	.	.	.	.	.	.	.	.	.	.
!	!	!	!	!	!	!LO:SIC:s=4e-\	!	!	!	!	!
2C,/	-tus	-tus	2r	.	.	4e-X\	.	to-	2cc\	quem	quem
.	.	.	.	.	.	4d\	.	.	.	.	.
!LO:TX:t=P:problem=kreska pseudotaktowa	!	!	!LO:TX:t=P:problem=kreska pseudotaktowa	!	!	!LO:TX:t=P:problem=kreska pseudotaktowa	!	!	!LO:TX:t=P:problem=kreska pseudotaktowa	!	!
2F\	non	non	2F/	non	non	2c,/	tot(us)	-t(us),	2a\	to-	to-
=43-	=43-	=43-	=43-	=43-	=43-	=43-	=43-	=43-	=43-	=43-	=43-
2.D/	ca-	ca-	1B-\	ca-	ca-	2f\	quem	quem	2f,/	-t(us)	-t(us)
!	!	!	!	!	!	!LO:TX:t=P:problem=kreska pseudotaktowa	!	!	!	!	!
!	!	!	!	!	!	!LO:SIC:s=[2d\	!	!	!	!	!
.	.	.	.	.	.	[y2d\	to-	to-	2ff\	non	non
4C/	-pit	.	.	.	.	.	.	.	.	.	.
!	!	!	!	!	!	!LO:LB:g=original	!	!	!	!	!
!	!	!	!	!	!	!LO:MO:mod=!null:null	!	!	!	!	!
!	!	!	!	!	!	!LO:N:xstem:cue	!	!	!	!	!
2BB-,/	.	-pit,	2B-,\	-pit	-pit,	4d\]	.	.	2.dd\	ca-	ca-
.	.	.	.	.	.	4c/	.	.	.	.	.
!LO:TX:t=P:problem=kreska pseudotaktowa	!	!	!LO:TX:t=P:problem=kreska pseudotaktowa	!	!	!LO:TX:t=P:problem=kreska pseudotaktowa	!	!	!	!	!
*	*	*	*	*ij	*ij	*	*	*	*	*	*
2B-\	Quem	quem	2B-\	non	non	2B-/	-tus	-tus,	.	.	.
!	!	!	!	!	!	!	!	!	!LO:TX:t=P:problem=kreska pseudotaktowa	!	!
.	.	.	.	.	.	.	.	.	4cc\	.	.
=44-	=44-	=44-	=44-	=44-	=44-	=44-	=44-	=44-	=44-	=44-	=44-
2.G\	to-	to-	1e-X\	ca-	ca-	2b-\	quem	quem	2.b-y\	.	.
.	.	.	.	.	.	2.g\	to-	to-	.	.	.
!	!	!	!	!	!	!	!	!	!LO:TX:t=P:problem=kreska pseudotaktowa	!	!
4F\	.	.	.	.	.	.	.	.	4a\	.	.
2E-X,\	-tus	-tus	2e-,\	-pit	-pit,	.	.	.	2g,/	-pit	-pit,
*	*	*	*	*Xij	*Xij	*	*	*	*	*	*
.	.	.	.	.	.	4f\	.	.	.	.	.
!LO:TX:t=P:problem=kreska pseudotaktowa	!	!	!LO:TX:t=P:problem=kreska pseudotaktowa	!	!	!	!	!	!LO:TX:t=P:problem=kreska pseudotaktowa	!	!
2E-\	non	non	2e-\	non	non	1e-\	-tus	-tus	2b-\	non	non
=45-	=45-	=45-	=45-	=45-	=45-	=45-	=45-	=45-	=45-	=45-	=45-
2A-X\	ca-	ca-	(4c\	ca-	ca-	.	.	.	2cc\	ca-	ca-
.	.	.	4B-\	.	.	.	.	.	.	.	.
!	!	!	!LO:TX:t=P:problem=kreska pseudotaktowa	!	!	!LO:TX:t=P:problem=kreska pseudotaktowa	!	!	!LO:TX:t=P:problem=kreska pseudotaktowa	!	!
2F\	-pit	-pit	2A-X/)	-pit	.	2f\	non	non	2dd\	-pit	-pit
4E-X\	or-	or-	1G/,	.	-pit,	2.g\	ca-	ca-	4ee-X\	or-	or-
4F\	.	.	.	.	.	.	.	.	4b-\	.	.
4G\	.	.	.	.	.	.	.	.	1ee-\	.	.
!LO:TX:t=P:problem=kreska pseudotaktowa	!	!	!	!	!	!	!	!	!	!	!
4A-\	.	.	.	.	.	4g\	-pit	-pit	.	.	.
=46-	=46-	=46-	=46-	=46-	=46-	=46-	=46-	=46-	=46-	=46-	=46-
2B-\	.	.	2r	.	.	1f\	or-	or-	.	.	.
!LO:TX:t=P:problem=kreska pseudotaktowa	!	!	!LO:TX:t=P:problem=kreska pseudotaktowa	!	!	!	!	!	!LO:TX:t=P:problem=kreska pseudotaktowa	!	!
2BB-/	.	.	2B-\	quem	quem	.	.	.	2dd\	.	.
!LO:LB:g=original	!	!	!	!	!	!	!	!	!	!	!
!	!	!	!	!	!	!LO:TX:t=P:problem=kreska pseudotaktowa	!	!	!LO:PB:g=original	!	!
2E-X\	-bis	-bis,	1B-\	to-	to-	1g\,	-bis	-bis,	2ee-X,\	-bis	-bis,
!	!	!	!	!	!	!	!	!	!LO:TX:t=P:problem=kreska pseudotaktowa	!	!
1E-\	non	non	.	.	.	.	.	.	2b-\	non	non
=47-	=47-	=47-	=47-	=47-	=47-	=47-	=47-	=47-	=47-	=47-	=47-
.	.	.	2G,/	-t(us)	-t(us)	2e-X\	non	non	2b-\	ca-	ca-
!LO:TX:t=P:problem=kreska pseudotaktowa	!	!	!	!	!	!	!	!	!	!	!
*	*	*	*lig	*	*	*	*	*	*	*	*
!	!	!	!	!	!	!	!	!	!LO:TX:t=P:problem=kreska pseudotaktowa	!	!
2E-y\	ca-	ca-	1G/	non	non	1e-\	ca-	ca-	2g,/	-pit	-pit,
*	*	*	*	*	*	*	*	*	*	*ij	*ij
2C,/	-pit	-pit	.	.	.	.	.	.	2cc\	non	non
*	*ij	*ij	*	*	*	*	*	*	*	*	*
!	!	!	!	!	!	!LO:TX:t=P:problem=kreska pseudotaktowa	!	!	!	!	!
2F\	non	non	(1Any\	.	.	2c,/	-pit	-pit	1cc\	ca-	ca-
*	*	*	*Xlig	*	*	*	*	*	*	*	*
=48-	=48-	=48-	=48-	=48-	=48-	=48-	=48-	=48-	=48-	=48-	=48-
!LO:TX:t=P:problem=kreska pseudotaktowa	!	!	!	!	!	!	!	!	!	!	!
*	*ij	*	*	*	*	*	*	*	*	*	*
1F\	ca-	ca-	.	.	.	[<2f\	or-	or-	.	.	.
!	!	!	!LO:TX:t=P:problem=kreska pseudotaktowa	!	!	!	!	!	!LO:TX:t=P:problem=kreska pseudotaktowa	!	!
.	.	.	2c\)	ca-	ca-	1f]	.	.	2a\	-pit	-pit,
*	*	*	*	*	*	*	*	*	*	*Xij	*Xij
2D,\	-pit	-pit,	2B-/	-pit	-pit	.	.	.	2dd\	non	non
*	*Xij	*Xij	*	*	*	*	*	*	*	*	*
!LO:TX:t=P:problem=kreska pseudotaktowa	!	!	!	!	!	!LO:TX:t=P:problem=kreska pseudotaktowa	!	!	!	!	!
2G\	non	non	2.B-/	or-	or-	2d\	.	.	1dd\	ca-	ca-
=49-	=49-	=49-	=49-	=49-	=49-	=49-	=49-	=49-	=49-	=49-	=49-
2G\	ca-	ca-	.	.	.	2g,\	-bis	-bis,	.	.	.
.	.	.	4A/	.	.	.	.	.	.	.	.
!	!	!	!LO:TX:t=P:problem=kreska pseudotaktowa	!	!	!	!	!	!	!	!
2C/	-pit	-pit	2G/	-bis	-bis,	1g\	non	non	(4cc\	-pit	-pit
!	!	!	!	!	!	!	!	!	!LO:TX:t=P:problem=kreska pseudotaktowa	!	!
.	.	.	.	.	.	.	.	.	4b-\)	.	.
!	!	!	!LO:PB:g=original	!	!	!	!	!	!	!	!
1D\	or-	or-	2r	.	.	.	.	.	1a\	or-	or-
!	!	!	!	!	!	!LO:TX:t=P:problem=kreska pseudotaktowa	!	!	!	!	!
.	.	.	1d\	In	in	2f#X\	ca-	ca-	.	.	.
=50-	=50-	=50-	=50-	=50-	=50-	=50-	=50-	=50-	=50-	=50-	=50-
!LO:TX:t=P:problem=kreska pseudotaktowa	!	!	!	!	!	!	!	!	!	!	!
1GG/	-bis.	-bis,	.	.	.	2g\	-pit	-pit	2b-,\	-bis.	-bis,
!	!	!	!LO:TX:t=P:problem=kreska pseudotaktowa	!	!	!	!	!	!	!	!
.	.	.	2B-\	tu-	tu-	2b-\	or-	or-	1g\	In	in
1r	.	.	2c\	-a	-a	1a\	.	.	.	.	.
!	!	!	!LO:TX:t=P:problem=kreska pseudotaktowa	!	!	!	!	!	!LO:TX:t=P:problem=kreska pseudotaktowa	!	!
.	.	.	2d\	se	se	.	.	.	2f#X/	tu-	tu-
=51-	=51-	=51-	=51-	=51-	=51-	=51-	=51-	=51-	=51-	=51-	=51-
!	!	!	!	!	!	!LO:TX:t=P:problem=kreska pseudotaktowa	!	!	!	!	!
2r	.	.	1G/	clau-	clau-	1g\	-bis	-bis,	2g,\	-a	-a
1G\	In	in	.	.	.	.	.	.	2b-\	se	se
!	!	!	!	!	!	!LO:PB:g=original	!	!	!	!	!
!	!	!	!LO:TX:t=P:problem=kreska pseudotaktowa	!	!	!LO:TX:t=P:problem=kreska pseudotaktowa	!	!	!LO:TX:t=P:problem=kreska pseudotaktowa	!	!
.	.	.	1A\,	-sit	-sit	1r	.	.	1a\	clau-	clau-
!LO:TX:t=P:problem=kreska pseudotaktowa	!	!	!	!	!	!	!	!	!	!	!
2F#X\	Tu-	tu-	.	.	.	.	.	.	.	.	.
=52-	=52-	=52-	=52-	=52-	=52-	=52-	=52-	=52-	=52-	=52-	=52-
2G\	-a	-a	2B-\	Viſ-	vi-	2r	.	.	2g,/	-sit	-sit,
2Fn\	se	se	2A/	-ce-	-sce-	1d\	In	in	2dd\	clau-	clau-
!	!	!	!LO:TX:t=P:problem=kreska pseudotaktowa	!	!	!	!	!	!	!	!
1E-X\	clau-	clau-	1G/	-ra	-ra,	.	.	.	(2g\	.	.
!	!	!	!	!	!	!LO:TX:t=P:problem=kreska pseudotaktowa	!	!	!LO:TX:t=P:problem=kreska pseudotaktowa	!	!
.	.	.	.	.	.	2c\	tu-	tu-	2cc\)	.	.
*	*	*	*	*	*	*	*	*	*custos:a	*	*
!	!	!	!	!	!	!	!	!	!LO:LB:g=original	!	!
=53-	=53-	=53-	=53-	=53-	=53-	=53-	=53-	=53-	=53-	=53-	=53-
2D,/	.	.	2.d\	clau-	clau-	2d,\	-a	-a	2a,\	-sit	-sit
!LO:TX:t=P:problem=kreska pseudotaktowa	!	!	!	!	!	!	!	!	!	!	!
[<2BB-/	-ſit	-sit,	.	.	.	2.fny\	se	se	2.dd\	Vi-	vi-
.	.	.	4c\	.	.	.	.	.	.	.	.
!LO:MO:mod=!null:null	!	!	!	!	!	!	!	!	!	!	!
!LO:N:xstem:cue	!	!	!	!	!	!	!	!	!	!	!
4BB-]	.	.	2.B-\	.	.	.	.	.	.	.	.
4C/	clau-	clau-	.	.	.	4e-X\	clau-	clau-	4cc\	.	.
!	!	!	!	!	!	!LO:TX:t=P:problem=kreska pseudotaktowa	!	!	!LO:TX:t=P:problem=kreska pseudotaktowa	!	!
4D/	.	.	.	.	.	2d\	.	.	2b-\	.	.
!LO:TX:t=P:problem=kreska pseudotaktowa	!	!	!LO:TX:t=P:problem=kreska pseudotaktowa	!	!	!	!	!	!	!	!
4BB-/	.	.	4F/	.	.	.	.	.	.	.	.
*custos:C	*	*	*	*	*	*	*	*	*	*	*
!LO:LB:g=original	!	!	!	!	!	!	!	!	!	!	!
=54-	=54-	=54-	=54-	=54-	=54-	=54-	=54-	=54-	=54-	=54-	=54-
2C,/	-sit	-sit	2.c\	-sit	-sit,	4e-X\	-sit	.	2a\	.	.
.	.	.	.	.	.	4e-,\	.	-sit	.	.	.
1D\	viſ-	vi-	.	.	.	1d\	vis-	vi-	1g\	.	.
!	!	!	!LO:TX:t=P:problem=kreska pseudotaktowa	!	!	!	!	!	!	!	!
.	.	.	4c\	.	vi-	.	.	.	.	.	.
.	.	.	2.A/	viſ-	.	.	.	.	.	.	.
!LO:TX:t=P:problem=kreska pseudotaktowa	!	!	!	!	!	!LO:TX:t=P:problem=kreska pseudotaktowa	!	!	!LO:TX:t=P:problem=kreska pseudotaktowa	!	!
2D\	-ce-	-sce-	.	.	.	2d\	-ce-	-sce-	2f#X/	-sce-	-sce-
.	.	.	4A/	-ce-	-sce-	.	.	.	.	.	.
=55-	=55-	=55-	=55-	=55-	=55-	=55-	=55-	=55-	=55-	=55-	=55-
2GG,/	-ra	-ra	2G,/	-ra	-ra	2d,\	-ra	-ra	2g,/	-ra	-ra
!LO:TX:t=P:problem=kreska pseudotaktowa	!	!	!LO:TX:t=P:problem=kreska pseudotaktowa	!	!	!	!	!	!	!	!
(2G\	Fa-	fa-	2d\	Fa-	fa-	1g\	Fa-	fa-	(2b-\	Fa-	fa-
2Any\)	.	.	2c#X\	-ctus	.	.	.	.	2a\)	.	.
!	!	!	!LO:TX:t=P:problem=custos z krzyżykiem	!	!	!	!	!	!	!	!
!	!	!	!LO:TX:t=P:problem=kreska pseudotaktowa	!	!	!LO:TX:t=P:problem=kreska pseudotaktowa	!	!	!LO:TX:t=P:problem=kreska pseudotaktowa	!	!
!	!	!	!	!	!	!LO:SIC:s=2f\	!	!	!	!	!
2D,/	-ctus	-ctus	2d\	.	-ctus	2fn\	.	.	2a\	-ct(us)	-ct(us)
*	*	*	*custos:c	*	*	*	*	*	*	*	*
!	!	!	!LO:LB:g=original	!	!	!	!	!	!	!	!
=56-	=56-	=56-	=56-	=56-	=56-	=56-	=56-	=56-	=56-	=56-	=56-
*lig	*	*	*	*	*	*	*	*	*	*	*
!	!	!	!	!	!	!LO:SIC:s=2e\	!	!	!	!	!
1A\	Ho-	ho-	2c#X\	Ho-	ho-	2en\	-ctus	-ctus	0a\	Ho-	ho-
!	!	!	!	!	!	!LO:TX:t=P:problem=kreska pseudotaktowa	!	!	!	!	!
.	.	.	1d\	.	.	2f\	.	.	.	.	.
1AA/	.	.	.	.	.	1e\	Ho-	ho-	.	.	.
!	!	!	!LO:TX:t=P:problem=kreska pseudotaktowa	!	!	!	!	!	!	!	!
!	!	!	!LO:SIC:s=2c#\	!	!	!	!	!	!	!	!
.	.	.	2c#X\	.	.	.	.	.	.	.	.
*Xlig	*	*	*	*	*	*	*	*	*	*	*
=57-	=57-	=57-	=57-	=57-	=57-	=57-	=57-	=57-	=57-	=57-	=57-
00D\;	-mo.	-mo.	00d\;	-mo.	-mo.	00f#X\	-mo.	-mo.	00a\;	-mo.	-mo.
!	!	!	!	!	!	!LO:LB:g=original	!	!	!	!	!
=58||-	=58||-	=58||-	=58||-	=58||-	=58||-	=58||-	=58||-	=58||-	=58||-	=58||-	=58||-
*M2/1	*	*	*M2/1	*	*	*M2/1	*	*	*M2/1	*	*
*met(C|)	*	*	*met(C|)	*	*	*met(C|)	*	*	*met(C|)	*	*
*mmet(c|)	*	*	*mmet(c|)	*	*	*mmet(c|)	*	*	*mmet(c|)	*	*
!	!	!	!	!	!	!LO:TX:t=P:problem=kreska pseudotaktowa	!	!	!LO:TX:t=P:problem=kreska pseudotaktowa	!	!
00r	.	.	1G/	Be-	Be-	1r	.	.	0r	.	.
.	.	.	2.B-\	-ne-	-ne-	2r	.	.	.	.	.
.	.	.	.	.	.	1g\	Be-	Be-	.	.	.
!	!	!	!LO:TX:t=P:problem=kreska pseudotaktowa	!	!	!	!	!	!	!	!
.	.	.	4cny\	.	.	.	.	.	.	.	.
=59-	=59-	=59-	=59-	=59-	=59-	=59-	=59-	=59-	=59-	=59-	=59-
.	.	.	2.d\	-di-	-di-	.	.	.	2r	.	.
!	!	!	!	!	!	!LO:TX:t=P:problem=kreska pseudotaktowa	!	!	!	!	!
.	.	.	.	.	.	2f#X\	-ne-	-ne-	1dd\	Be-	Be-
.	.	.	4c\	.	.	.	.	.	.	.	.
.	.	.	2B-\	.	.	2g\	-di-	-di-	.	.	.
!	!	!	!LO:TX:t=P:problem=kreska pseudotaktowa	!	!	!LO:TX:t=P:problem=kreska pseudotaktowa	!	!	!	!	!
!	!	!	!	!	!	!	!	!	!LO:SIC:s=2cc\	!	!
.	.	.	2A\	-cta	-cta	2a\	.	.	2ccn\	-ne-	-ne-
=60-	=60-	=60-	=60-	=60-	=60-	=60-	=60-	=60-	=60-	=60-	=60-
2r	.	.	2G,/	Tu	tu,	2b-\	.	.	2dd\	-di-	-di-
!LO:TX:t=P:problem=kreska pseudotaktowa	!	!	!LO:TX:t=P:problem=kreska pseudotaktowa	!	!	!	!	!	!LO:TX:t=P:problem=kreska pseudotaktowa	!	!
2D\	Be-	Be-	2d\	Be-	be-	1a\	.	.	2dd\	-cta	-cta,
!LO:SIC:s=(2.F\	!	!	!	!	!	!	!	!	!LO:TX:t=P:problem=kreska pseudotaktowa	!	!
(2.Fn\	-ne-	-ne-	2d\	-ne-	-ne-	.	.	.	1r	.	.
!	!	!	!LO:TX:t=P:problem=kreska pseudotaktowa	!	!	!	!	!	!	!	!
.	.	.	2d\	-di-	-di-	4g\	.	.	.	.	.
!	!	!	!	!	!	!LO:TX:t=P:problem=kreska pseudotaktowa	!	!	!	!	!
4G\)	.	.	.	.	.	4f\	.	.	.	.	.
!	!	!	!	!	!	!	!	!	!LO:LB:g=original	!	!
=61-	=61-	=61-	=61-	=61-	=61-	=61-	=61-	=61-	=61-	=61-	=61-
2.A\	-di-	-di-	2d\	-cta	-cta	2e\	.	.	2r	.	.
!	!	!	!LO:TX:t=P:problem=kreska pseudotaktowa	!	!	!	!	!	!	!	!
.	.	.	2c\	Tu	.	2e\	-cta	-cta	1a\	Be-	be-
!LO:TX:t=P:problem=kreska pseudotaktowa	!	!	!	!	!	!	!	!	!	!	!
4G\	.	.	.	.	.	.	.	.	.	.	.
!	!	!	!	!	!	!LO:SIC:s=2f\	!	!	!	!	!
2F\	.	.	2d,\	.	tu	2fn\	Tu	tu	.	.	.
!LO:TX:t=P:problem=kreska pseudotaktowa	!	!	!LO:TX:t=P:problem=kreska pseudotaktowa	!	!	!LO:TX:t=P:problem=kreska pseudotaktowa	!	!	!LO:TX:t=P:problem=kreska pseudotaktowa	!	!
2Eny\	-cta	.	2G/	in	in	2r	.	.	2g/	-ne-	-ne-
=62-	=62-	=62-	=62-	=62-	=62-	=62-	=62-	=62-	=62-	=62-	=62-
2D,/	.	-cta	(2.d\	mu-	mu-	2r	.	.	2a\	-di-	-di-
!	!	!	!	!	!	!LO:TX:t=P:problem=kreska pseudotaktowa	!	!	!LO:TX:t=P:problem=kreska pseudotaktowa	!	!
1G\	in	in	.	.	.	2d\	in	in	2g\	-cta	-cta
!	!	!	!LO:TX:t=P:problem=kreska pseudotaktowa	!	!	!	!	!	!	!	!
.	.	.	4c\)	.	.	.	.	.	.	.	.
!	!	!	!LO:LB:g=original	!	!	!	!	!	!LO:SIC:s=2.b-\	!	!
.	.	.	2.B-\	.	.	2.g\	mu-	mu-	2.b-X\	Tu	tu
!LO:TX:t=P:problem=kreska pseudotaktowa	!	!	!	!	!	!	!	!	!	!	!
[<2G\	mu-	mu-	.	.	.	.	.	.	.	.	.
!	!	!	!	!	!	!LO:TX:t=P:problem=kreska pseudotaktowa	!	!	!LO:TX:t=P:problem=kreska pseudotaktowa	!	!
.	.	.	4A\	-li-	.	4a\	-li-	-li-	4cc\	.	.
=63-	=63-	=63-	=63-	=63-	=63-	=63-	=63-	=63-	=63-	=63-	=63-
2G]	.	.	2G/	-e-	-li-	2b-\	-e-	-e-	2.dd\	in	in
!LO:TX:t=P:problem=kreska pseudotaktowa	!	!	!LO:TX:t=P:problem=kreska pseudotaktowa	!	!	!LO:TX:t=P:problem=kreska pseudotaktowa	!	!	!	!	!
2F#X\	.	.	2A\	.	-e-	2a\	.	.	.	.	.
!	!	!	!	!	!	!	!	!	!LO:TX:t=P:problem=kreska pseudotaktowa	!	!
.	.	.	.	.	.	.	.	.	4cc\	.	.
!LO:LB:g=original	!	!	!	!	!	!	!	!	!	!	!
2G\	.	.	4B-\	.	.	2g\	.	.	2b-\	mu-	mu-
.	.	.	4c\	.	.	.	.	.	.	.	.
!	!	!	!	!	!	!LO:TX:t=P:problem=kreska pseudotaktowa	!	!	!	!	!
2Fn\	-li-	-li-	1d\	.	.	2d/	.	.	2a\	-li-	-li-
*	*	*	*	*	*	*custos:g	*	*	*	*	*
!	!	!	!	!	!	!LO:LB:g=original	!	!	!	!	!
=64-	=64-	=64-	=64-	=64-	=64-	=64-	=64-	=64-	=64-	=64-	=64-
2.E-X\	-er-	-e-	.	.	.	2.g\	.	.	2g\	-e-	-e-
!	!	!	!LO:TX:t=P:problem=kreska pseudotaktowa	!	!	!	!	!	!LO:TX:t=P:problem=kreska pseudotaktowa	!	!
.	.	.	2c\	-ri-	-ri-	.	.	.	2cc\	-ri-	-ri-
!LO:TX:t=P:problem=kreska pseudotaktowa	!	!	!	!	!	!	!	!	!	!	!
4E-\	-i-	-ri-	.	.	.	4g\	-ri-	-ri-	.	.	.
!LO:TX:t=P:problem=kreska pseudotaktowa	!	!	!	!	!	!	!	!	!	!	!
1D\	-bus	-bus.	2d,\	-bus	-bus.	2f#X,\	-bus	-bus.	2a,\	-bus	-bus.
!	!	!	!LO:TX:t=P:problem=kreska pseudotaktowa	!	!	!LO:TX:t=P:problem=kreska pseudotaktowa	!	!	!LO:TX:t=P:problem=kreska pseudotaktowa	!	!
.	.	.	2G/	et	Et	2g\	et	Et	2b-\	et	Et
=65-	=65-	=65-	=65-	=65-	=65-	=65-	=65-	=65-	=65-	=65-	=65-
!LO:TX:t=P:problem=kreska pseudotaktowa	!	!	!	!	!	!	!	!	!	!	!
1r	.	.	2c\	be-	be-	2g\	be-	be-	2cc\	be-	be-
!	!	!	!LO:TX:t=P:problem=kreska pseudotaktowa	!	!	!LO:TX:t=P:problem=kreska pseudotaktowa	!	!	!LO:TX:t=P:problem=kreska pseudotaktowa	!	!
.	.	.	2A/	-ne-	.	2f#X\	-ne-	-ne-	2cc\	-ne-	-ne-
1G\	et	Et	2G/	-di-	-ne-	2g\	-di-	-di-	2b-\	-di-	-di-
!	!	!	!	!	!	!LO:TX:t=P:problem=kreska pseudotaktowa	!	!	!LO:TX:t=P:problem=kreska pseudotaktowa	!	!
.	.	.	1d\	.	-di-	2g\	-ctus	-ctus	2b-\	-ctus	-ctus
=66-	=66-	=66-	=66-	=66-	=66-	=66-	=66-	=66-	=66-	=66-	=66-
!	!	!	!	!	!	!LO:TX:t=P:problem=kreska pseudotaktowa	!	!	!LO:TX:t=P:problem=kreska pseudotaktowa	!	!
2F#X\	be-	be-	.	.	.	1r	.	.	[<1dd\	Fru-	fru-
!LO:TX:t=P:problem=kreska pseudotaktowa	!	!	!	!	!	!	!	!	!	!	!
2G\	-ne-	-ne-	1B-\	-ctus	.	.	.	.	.	.	.
2G\	-di-	-di-	.	.	.	2g\	Fru-	fru-	2dd\]	.	.
!LO:TX:t=P:problem=kreska pseudotaktowa	!	!	!	!	!	!LO:TX:t=P:problem=kreska pseudotaktowa	!	!	!LO:TX:t=P:problem=kreska pseudotaktowa	!	!
[<2E-X\	-ctus	-ctus	1c\	.	-ctus	[<2g\	-ctus	-ctus	[<2cc\	-ctus	-ctus
=67-	=67-	=67-	=67-	=67-	=67-	=67-	=67-	=67-	=67-	=67-	=67-
2E-\]	.	.	.	.	.	2g\],	.	.	2cc\]	.	.
!LO:TX:t=P:problem=kreska pseudotaktowa	!	!	!	!	!	!LO:TX:t=P:problem=kreska pseudotaktowa	!	!	!LO:TX:t=P:problem=kreska pseudotaktowa	!	!
[<2Fny\	Fru-	fru-	1A\	Fru-	fru-	[<2fny\	Ven-	ven-	[<2cc\	Ven-	ven-
*	*	*	*	*	*	*	*	*	*custos:cc	*	*
!	!	!	!	!	!	!	!	!	!LO:LB:g=original	!	!
2F\]	.	.	.	.	.	2f\]	.	.	2cc]	.	.
!LO:TX:t=P:problem=kreska pseudotaktowa	!	!	!	!	!	!LO:TX:t=P:problem=kreska pseudotaktowa	!	!	!LO:TX:t=P:problem=kreska pseudotaktowa	!	!
[<2D/	-ctus	-ctus	1B-\	-ct(us)	-ct(us)	[<2f\	-tris	-tris,	[<2b-\	-tris	-tris,
=68-	=68-	=68-	=68-	=68-	=68-	=68-	=68-	=68-	=68-	=68-	=68-
2D\]	.	.	.	.	.	2f\],	.	.	2b-\]	.	.
!	!	!	!	!	!	!LO:TX:t=P:problem=kreska pseudotaktowa	!	!	!LO:TX:t=P:problem=kreska pseudotaktowa	!	!
!	!	!	!	!	!	!	!	!	!LO:SIC:s=[2b-\	!	!
1E-X\	Ven-	ven-	1G/	Ven-	ven-	[<2e-X\	Fru-	fru-	2b-\	Ven-	ven-
!	!	!	!	!	!	!	!	!	!LO:SIC:s=2b-\]	!	!
.	.	.	.	.	.	2e-\]	.	.	2b-\	.	.
!LO:TX:t=P:problem=kreska pseudotaktowa	!	!	!	!	!	!LO:TX:t=P:problem=kreska pseudotaktowa	!	!	!	!	!
2C/	-tris	-tris	1A\	-tris	.	2e-\	-ctus	-ctus	4a/	-tris	-tris
.	.	.	.	.	.	.	.	.	4g/	.	.
*	*	*	*	*	*	*custos:d	*	*	*	*	*
!	!	!	!	!	!	!LO:LB:g=original	!	!	!	!	!
=69-	=69-	=69-	=69-	=69-	=69-	=69-	=69-	=69-	=69-	=69-	=69-
0D\	Tu-	tu-	.	.	.	(4d/	Ven-	ven-	2f#X/	.	.
.	.	.	.	.	.	4c/)	.	.	.	.	.
.	.	.	2B-X\	.	-tris	(4B-/	-tris	-tris	1g\	Tu-	tu-
!	!	!	!	!	!	!LO:TX:t=P:problem=kreska pseudotaktowa	!	!	!	!	!
.	.	.	.	.	.	4c/)	.	.	.	.	.
!	!	!	!	!	!	!LO:TX:t=P:problem=kreska pseudotaktowa	!	!	!	!	!
.	.	.	1A\	Tu-	tu-	1d\	Tu-	tu-	.	.	.
!	!	!	!	!	!	!	!	!	!LO:TX:t=P:problem=kreska pseudotaktowa	!	!
!	!	!	!	!	!	!	!	!	!LO:SIC:s=2f#/	!	!
.	.	.	.	.	.	.	.	.	2f#X/	.	.
=70-	=70-	=70-	=70-	=70-	=70-	=70-	=70-	=70-	=70-	=70-	=70-
2GG,/	-i.	-i.	2Bn,\	-i	-i.	2d,\	-i.	-i.	2g,\	-i.	-i.
!LO:TX:t=P:problem=kreska pseudotaktowa	!	!	!LO:TX:t=P:problem=kreska pseudotaktowa	!	!	!LO:TX:t=P:problem=kreska pseudotaktowa	!	!	!LO:TX:t=P:problem=kreska pseudotaktowa	!	!
!LO:TX:a:t=P:problem=custos E z bemolem	!	!	!	!	!	!	!	!	!	!	!
2G\	Quem	Quem	2G/	Quem	Quem	2d\	Quem	Quem	2bn\	Quem	Quem
*custos:E	*	*	*	*	*	*	*	*	*	*	*
!LO:LB:g=original	!	!	!LO:LB:g=original	!	!	!	!	!	!	!	!
!	!	!	!LO:TX:a:t=c.:mod=	!	!	!	!	!	!	!	!
(2.E-X\	to-	to-	2c\	to-	to-	2e-X\	to-	to-	1cc\	to-	to-
!	!	!	!LO:TX:t=P:problem=kreska pseudotaktowa	!	!	!LO:TX:t=P:problem=kreska pseudotaktowa	!	!	!	!	!
.	.	.	2C/	-tus	-tus	2g\	.	.	.	.	.
!LO:TX:t=P:problem=kreska pseudotaktowa	!	!	!	!	!	!	!	!	!	!	!
4D\)	.	.	.	.	.	.	.	.	.	.	.
=71-	=71-	=71-	=71-	=71-	=71-	=71-	=71-	=71-	=71-	=71-	=71-
2C,/	-tus	-tus	2r	.	.	4e-X\	.	.	2cc,\	-tus	-tus
.	.	.	.	.	.	4d\	.	.	.	.	.
!LO:TX:t=P:problem=kreska pseudotaktowa	!	!	!	!	!	!LO:TX:t=P:problem=kreska pseudotaktowa	!	!	!LO:TX:t=P:problem=kreska pseudotaktowa	!	!
2F\	non	non	2F/	non	non	2c,/	-tus	-tus,	2a\	non	non
(2.D/	ca-	ca-	1B-y\	ca-	ca-	2f\	quem	quem	2fny/	ca-	ca-
!	!	!	!	!	!	!	!	!	!LO:TX:t=P:problem=kreska pseudotaktowa	!	!
.	.	.	.	.	.	2.d\	.	to-	2ff\	.	.
!LO:TX:t=P:problem=kreska pseudotaktowa	!	!	!	!	!	!	!	!	!	!	!
4C/)	.	.	.	.	.	.	.	.	.	.	.
=72-	=72-	=72-	=72-	=72-	=72-	=72-	=72-	=72-	=72-	=72-	=72-
2BB-,/	-pit,	-pit,	2B-,\	-pit	-pit,	.	.	.	2.dd\	.	.
.	.	.	.	.	.	4c/	to-	.	.	.	.
!	!	!	!LO:TX:t=P:problem=kreska pseudotaktowa	!	!	!LO:TX:t=P:problem=kreska pseudotaktowa	!	!	!	!	!
*	*	*	*	*ij	*ij	*	*	*	*	*	*
2B-\	quem	quem	2B-\	non	non	2B-,/	-t(us)	-t(us),	.	.	.
.	.	.	.	.	.	.	.	.	4cc\	.	.
*	*	*	*	*	*	*	*ij	*ij	*	*	*
(2.G\	to-	to-	1e-X\	ca-	ca-	2b-\	quem	quem	2.b-y\	-pit	-pit,
.	.	.	.	.	.	2.g\	.	to-	.	.	.
!LO:TX:t=P:problem=kreska pseudotaktowa	!	!	!	!	!	!	!	!	!LO:TX:t=P:problem=kreska pseudotaktowa	!	!
4F\)	.	.	.	.	.	.	.	.	4a\	.	.
=73-	=73-	=73-	=73-	=73-	=73-	=73-	=73-	=73-	=73-	=73-	=73-
2E-X,\	-tus	-tus	2e-y,\	-pit	-pit,	.	.	.	2g/	non	non
*	*	*	*	*Xij	*Xij	*	*	*	*	*	*
.	.	.	.	.	.	4f\	to-	.	.	.	.
!LO:TX:t=P:problem=kreska pseudotaktowa	!	!	!LO:TX:t=P:problem=kreska pseudotaktowa	!	!	!	!	!	!LO:TX:t=P:problem=kreska pseudotaktowa	!	!
2E-\	non	non	2e-\	quem	quem	1e-X,	-t(us)	-t(us)	2b-\	ca-	ca-
*	*	*	*	*	*	*	*Xij	*Xij	*	*	*
!	!	!	!	!	!	!	!	!	!LO:LB:g=original	!	!
2A-X\	ca-	ca-	4c\	.	.	.	.	.	2cc\	.	.
.	.	.	4B-\	.	.	.	.	.	.	.	.
!	!	!	!	!	!	!LO:TX:t=P:problem=kreska pseudotaktowa	!	!	!	!	!
2F\	-pit	-pit	2A-X/	to-	to-	2f\	non	non	2dd\	-pit	-pit
=74-	=74-	=74-	=74-	=74-	=74-	=74-	=74-	=74-	=74-	=74-	=74-
!	!	!	!LO:TX:t=P:problem=kreska pseudotaktowa	!	!	!	!	!	!	!	!
4E-X\	or-	or-	1G/	-tus	-tus,	2g\	ca-	ca-	4ee-X\	Or-	or-
4F\	.	.	.	.	.	.	.	.	4b-\	.	.
4G\	.	.	.	.	.	2g\	-pit	-pit	1ee-\	.	.
!LO:TX:t=P:problem=kreska pseudotaktowa	!	!	!	!	!	!	!	!	!	!	!
4A-X\	.	.	.	.	.	.	.	.	.	.	.
!	!	!	!	!	!	!LO:TX:t=P:problem=kreska pseudotaktowa	!	!	!	!	!
2B-\	.	.	2r	.	.	1f\	or-	or-	.	.	.
!LO:TX:t=P:problem=kreska pseudotaktowa	!	!	!LO:TX:t=P:problem=kreska pseudotaktowa	!	!	!	!	!	!LO:TX:t=P:problem=kreska pseudotaktowa	!	!
2BB-/	.	.	2B-\	non	non	.	.	.	2dd\	.	.
!	!	!	!	!	!	!LO:LB:g=original	!	!	!	!	!
=75-	=75-	=75-	=75-	=75-	=75-	=75-	=75-	=75-	=75-	=75-	=75-
!	!	!	!LO:TX:t=P:problem=kreska pseudotaktowa	!	!	!LO:TX:t=P:problem=kreska pseudotaktowa	!	!	!	!	!
2E-X,\	-bis,	-bis,	1B-\	ca-	ca-	1g\,	-bis.	-bis,	2ee-yX,\	-bis	-bis,
1E-\	non	non	.	.	.	.	.	.	2b-\	non	non
.	.	.	2G,/	-pit	-pit	2e-X\	non	non	2b-\	ca-	ca-
*	*	*	*lig	*	*	*	*	*	*	*	*
!	!	!	!	!	!	!	!	!	!LO:TX:t=P:problem=kreska pseudotaktowa	!	!
2E-\	ca-	ca-	1G/	or-	or-	1e-\	ca-	ca-	2g\	-pit	-pit,
=76-	=76-	=76-	=76-	=76-	=76-	=76-	=76-	=76-	=76-	=76-	=76-
*	*	*	*	*	*	*	*	*	*	*ij	*ij
2C,/	-pit	-pit,	.	.	.	.	.	.	2cc\	non	non
!	!	!	!	!	!	!LO:TX:t=P:problem=kreska pseudotaktowa	!	!	!	!	!
*	*ij	*ij	*	*	*	*	*	*	*	*	*
2F\	non	non	1Any\	.	.	2c/	-pit	-pit,	1cc\	ca-	ca-
*	*	*	*	*	*	*	*ij	*ij	*	*	*
!LO:TX:t=P:problem=kreska pseudotaktowa	!	!	!	!	!	!LO:MO:mod=[<1f\	!	!	!	!	!
1F\	ca-	ca-	.	.	.	[<2f\	non	non	.	.	.
*	*	*	*Xlig	*	*	*	*	*	*	*	*
!	!	!	!LO:TX:t=P:problem=kreska pseudotaktowa	!	!	!LO:MO:mod=.	!	!	!LO:TX:t=P:problem=kreska pseudotaktowa	!	!
.	.	.	2c\	.	.	1f]	.	.	2a\	-pit	-pit,
*	*	*	*	*	*	*	*	*	*	*Xij	*Xij
=77-	=77-	=77-	=77-	=77-	=77-	=77-	=77-	=77-	=77-	=77-	=77-
2D,\	-pit	-pit,	2B-,\	-bis	-bis,	.	.	.	2dd\	non	non
*	*Xij	*Xij	*	*	*	*	*	*	*	*	*
!	!	!	!LO:LB:g=original	!	!	!	!	!	!	!	!
!LO:TX:t=P:problem=kreska pseudotaktowa	!	!	!	!	!	!LO:TX:t=P:problem=kreska pseudotaktowa	!	!	!	!	!
2G\	non	non	(2.B-\	or-	or-	2d\	ca-	ca-	1dd\	ca-	ca-
*	*	*	*	*	*	*	*Xij	*Xij	*	*	*
!LO:LB:g=original	!	!	!	!	!	!	!	!	!	!	!
2G\	ca-	ca-	.	.	.	2g\	-pit	-pit,	.	.	.
.	.	.	4A/)	.	.	.	.	.	.	.	.
!	!	!	!LO:TX:t=P:problem=kreska pseudotaktowa	!	!	!	!	!	!	!	!
2C/	-pit	-pit	2G/	-bis.	-bis,	1g\	non	non	4cc\	-pit	-pit
!	!	!	!	!	!	!	!	!	!LO:TX:t=P:problem=kreska pseudotaktowa	!	!
.	.	.	.	.	.	.	.	.	4b-\	.	.
=78-	=78-	=78-	=78-	=78-	=78-	=78-	=78-	=78-	=78-	=78-	=78-
1D\	or-	or-	2r	.	.	.	.	.	1a\	or-	or-
!	!	!	!	!	!	!LO:TX:t=P:problem=kreska pseudotaktowa	!	!	!	!	!
.	.	.	1d\	In	in	2f#X\	ca-	ca-	.	.	.
!LO:TX:t=P:problem=kreska pseudotaktowa	!	!	!	!	!	!	!	!	!	!	!
1GG/	-bis.	-bis,	.	.	.	2g\	.	.	2b-,\	-bis	-bis,
!	!	!	!LO:TX:t=P:problem=kreska pseudotaktowa	!	!	!LO:TX:t=P:problem=kreska pseudotaktowa	!	!	!	!	!
.	.	.	2B-\	tu-	tu-	2b-\	-pit	-pit	1g\	.	in
=79-	=79-	=79-	=79-	=79-	=79-	=79-	=79-	=79-	=79-	=79-	=79-
1r	.	.	2c\	-a	-a	1a\	or-	or-	.	.	.
!	!	!	!LO:TX:t=P:problem=kreska pseudotaktowa	!	!	!	!	!	!LO:TX:t=P:problem=kreska pseudotaktowa	!	!
.	.	.	2d\	se	se	.	.	.	2f#X/	In	tu-
!	!	!	!	!	!	!LO:TX:t=P:problem=kreska pseudotaktowa	!	!	!	!	!
2r	.	.	1G/	clau-	clau-	1g\	-bis.	-bis,	2g,\	tua	-a
1G\	In	in	.	.	.	.	.	.	2b-\	se	se
=80-	=80-	=80-	=80-	=80-	=80-	=80-	=80-	=80-	=80-	=80-	=80-
!	!	!	!LO:TX:t=P:problem=kreska pseudotaktowa	!	!	!LO:TX:t=P:problem=kreska pseudotaktowa	!	!	!	!	!
.	.	.	1A\	-ſit	-sit	1r	.	.	1a\	clau-	clau-
!LO:TX:t=P:problem=kreska pseudotaktowa	!	!	!	!	!	!	!	!	!	!	!
2F#X\	Tu-	tu-	.	.	.	.	.	.	.	.	.
2G,\	-a	-a	2B-\	viſ-	vi-	2r	.	.	2g,/	-ſit	-sit,
!	!	!	!	!	!	!	!	!	!LO:TX:t=P:problem=kreska pseudotaktowa	!	!
2Fn\	se	se	2A/	-ce-	-sce-	1d\	In	in	2dd\	clau-	clau-
!	!	!	!	!	!	!	!	!	!LO:LB:g=original	!	!
=81-	=81-	=81-	=81-	=81-	=81-	=81-	=81-	=81-	=81-	=81-	=81-
!	!	!	!LO:TX:t=P:problem=kreska pseudotaktowa	!	!	!	!	!	!	!	!
1E-X\	clau-	clau-	1G/,	-ra	-ra,	.	.	.	(<2g/	.	.
!	!	!	!	!	!	!LO:TX:t=P:problem=kreska pseudotaktowa	!	!	!LO:TX:t=P:problem=kreska pseudotaktowa	!	!
.	.	.	.	.	.	2c\	tu-	tu-	2cc\)	.	.
2D/	.	.	2.d\	clau-	clau-	2d,\	-a	-a	2a\	-sit	-sit
2.BB-/	.	.	.	.	.	2.fny\	se	se	2.dd\	Vis-	vi-
.	.	.	4c\	.	.	.	.	.	.	.	.
=82-	=82-	=82-	=82-	=82-	=82-	=82-	=82-	=82-	=82-	=82-	=82-
.	.	.	2.B-\	.	.	.	.	.	.	.	.
4C/	.	.	.	.	.	4e-X\	clau-	.	4cc\	-ce-	.
!	!	!	!	!	!	!LO:TX:t=P:problem=kreska pseudotaktowa	!	!	!LO:TX:t=P:problem=kreska pseudotaktowa	!	!
4D/	.	.	.	.	.	2d\	.	clau-	2b-\	-ra	-sce-
!LO:TX:t=P:problem=kreska pseudotaktowa	!	!	!LO:TX:t=P:problem=kreska pseudotaktowa	!	!	!	!	!	!	!	!
4BB-/	.	.	4F/	.	.	.	.	.	.	.	.
!	!	!	!	!	!	!LO:LB:g=original	!	!	!	!	!
!	!	!	!	!	!	!LO:SIC:s=4e-/	!	!	!	!	!
2C,/	-sit	-sit	2c\	-sit	.	4e-X/	.	.	2a/	.	-ra
.	.	.	.	.	.	4e-/	-sit	-sit	.	.	.
1D\	vis-	vi-	2c\	.	-sit	1d\	Vis-	vi-	1g\	Fa-	fa-
=83-	=83-	=83-	=83-	=83-	=83-	=83-	=83-	=83-	=83-	=83-	=83-
.	.	.	2.A/	viſ-	vi-	.	-ce-	.	.	.	.
!LO:TX:t=P:problem=kreska pseudotaktowa	!	!	!	!	!	!LO:TX:t=P:problem=kreska pseudotaktowa	!	!	!LO:TX:t=P:problem=kreska pseudotaktowa	!	!
2D\	-ce-	-sce-	.	.	.	2d/	.	-sce-	2f#X/	.	.
!	!	!	!LO:TX:t=P:problem=kreska pseudotaktowa	!	!	!	!	!	!	!	!
.	.	.	4A/	-ce-	-sce-	.	.	.	.	.	.
!	!	!	!LO:TX:t=P:problem=custos z kasownikiem	!	!	!	!	!	!	!	!
2GG/	-ra	-ra	2G,/	-ra	-ra	2d,/	-ra	-ra	2g,/	-ctus	-ctus,
*	*	*	*custos:B	*	*	*	*	*	*	*ij	*ij
!	!	!	!LO:LB:g=original	!	!	!	!	!	!	!	!
1G\	Fa-	fa-	1Bn\	Fa-	fa-	1d\	Fa-	fa-	1g\	Fa-	fa-
=84-	=84-	=84-	=84-	=84-	=84-	=84-	=84-	=84-	=84-	=84-	=84-
!LO:TX:t=P:problem=kreska pseudotaktowa	!	!	!LO:TX:t=P:problem=kreska pseudotaktowa	!	!	!LO:TX:t=P:problem=kreska pseudotaktowa	!	!	!LO:TX:t=P:problem=kreska pseudotaktowa	!	!
2GG/	-ct(us)	-ct(us)	2Bny\	-ctus	-ctus	2d/	-ct(us)	-ct(us)	2g/	-ctus	-ctus
*	*	*	*	*	*	*	*	*	*	*Xij	*Xij
0C/	Ho-	ho-	0c\	Ho-	ho-	0e-X\	Ho-	ho-	0g\	Ho-	ho-
=85-	=85-	=85-	=85-	=85-	=85-	=85-	=85-	=85-	=85-	=85-	=85-
00GG/;	-mo.	-mo.	00Bn\;	-mo.	-mo.	00d\;	-mo.	-mo.	00g\;	-mo.	-mo.
==	==	==	==	==	==	==	==	==	==	==	==
*-	*-	*-	*-	*-	*-	*-	*-	*-	*-	*-	*-
!!!system-decoration: [(s1,s2,s3,s4)]
!!!RDF**kern: > = above
!!!RDF**kern: < = below
!!LO:MO:ori
!!!RDF**kern: i = editorial accidental
!!LO:MO:end
!!!EED: Leszek Kubiak
!!!EEV: 2021-03-02
!!!ENC: Anastazja Marusiak
!!!END: 2021-03-02
!!!ENC-modern: Katarzyna Serwa
!!!END-modern: 2022-08-18
!!!filter-modern: sic -sq | shed -e "s/LO:DY:(a|b|rj)/LO:dy:$1/L" | autostem -r | tie -s | shed -e "s/-//B" | shed -k -e "s/[<>]//g" | shed -e "s/^custos:/Xcustos:/I" | shed -e "s/TX(.*):t=P:/tx$1:t=P:/LG" | shed -e "s/^(\d+[\/\\]right)/$1yy/I; s/^(\d+[\/\\]left)/$1yy/I" | humtr -p | modori -m
